!!!RNB: voices? m.25 check new voice appearance
!!!COM: Franccesco Spinacino
!!!CDT: fl.1507
!!!OTL: La stangetta
!!!ONB: lute intabulation
!!!AGN: Motet
!!!SCT: Gas0506.2
!!!SCA: Gas0506.2
!!!voices:
**kern	**kern
*part1	*part1
*staff2	*staff1
*clefF4	*clefG2
*k[b-]	*k[b-]
*M4/4	*M4/4
=1	=1
4G	1r
16ALL	.
16G	.
16F	.
16GJJ	.
8AL	.
8GJ	.
16ALL	.
16G	.
16F	.
16GJJ	.
=2	=2
2A	1r
2A	.
=3	=3
8B-yL	4.g
8AJ	.
2.G	.
.	8c
.	8dL
.	8e
.	8f
.	8gJ
=4	=4
8FL	2a
8E	.
8D	.
8CJ	.
2F	8aL
.	8b-y
.	8cc
.	8aJ
=5	=5
*^	*
2G	2ryy	8r
.	.	8b-yL
.	.	8a
.	.	8gJ
2ryy	4G	8r
.	.	8b-yL
.	8FL	8a
.	8EJ	8gJ
!!LO:LB:g=original
=6	=6	=6
2A	2D	2f
2A	2D	2f
=7	=7	=7
4B-y	4BB-y	4g
2B-y	8GGL	2g
.	8AAJ	.
.	8BB-yL	.
.	8AAJ	.
4G	8CL	4e
.	8AAJ	.
=8	=8	=8
2F	4BB-y	4d
.	8BB-yL	4dd
.	8CJ	.
2F	2F	8ddL
.	.	8cc
.	.	8b-y
.	.	8aJ
=9	=9	=9
4G	4BB-y	4b-y
2G	4GG	2.b-y
.	8GGL	.
.	8AA	.
[4F	8BB-y	.
.	8CJ	.
=10	=10	=10
4F]	8DL	2f
.	8E	.
4rc	8F	.
.	8GJ	.
4A	4D	[2r
4d	[4D	.
!!LO:LB:g=original
=11	=11	=11
*	*	*^
8dL	2D]	2f	1ryy
8c	.	.	.
8B-y	.	.	.
8AJ	.	.	.
4B-y	4E-X	2g	.
[4B-y	[4G	.	.
=12	=12	=12	=12
4B-]	4G]	2g	1ryy
8AL	8FL	.	.
8GJ	8EJ	.	.
4F	2D	2a	.
4F	.	.	.
=13	=13	=13	=13
1Fyy	8FL	2a	2f
.	8E	.	.
.	8D	.	.
.	8CJ	.	.
.	2G	8ddL	2d
.	.	8cc	.
.	.	8b-y	.
.	.	8aJ	.
*	*	*v	*v
=14	=14	=14
4e	4E	4g
4c	4A	2a
4d	4F	.
4B-y	4G	[4g
=15	=15	=15
2A	2D	4g]
.	.	4f#X
2G	4rEE	2g
.	4GG	.
!!LO:LB:g=original
=16	=16	=16
4rc	4GG	1r
4G	8GGL	.
.	8AAJ	.
8GL	4BB-y	.
8AJ	.	.
4B-y	4GG	.
=17	=17	=17
4G	4BB-y	1r
4B-y	8BB-yL	.
.	8CJ	.
8B-yL	4D	.
8cJ	.	.
4d	4BB-y	.
=18	=18	=18
8dL	2GG	1r
8c	.	.
8B-y	.	.
8AJ	.	.
4G	4BB-y	.
[4A	4C	.
=19	=19	=19
4A]	4D	1r
2G	4GG	.
.	2AA	.
4F#X	.	.
=20	=20	=20
4G	4GG	4r
8GL	4G	4g
8AJ	.	.
4B-y	4E-X	8gL
.	.	8aJ
4G	[4G	4b-y
!!LO:LB:g=original
=21	=21	=21
4B-y	2G]	4g
8B-yL	.	4b-y
8cJ	.	.
4d	2D	8b-yL
.	.	8ccJ
4B-y	.	4dd
=22	=22	=22
2B-y	2G	8ddL
.	.	8cc
.	.	8b-y
.	.	8aJ
[2B-y	8BB-yL	2g
.	8C	.
.	8D	.
.	8E-XJ	.
=23	=23	=23
4B-]	4D	4f
4G	4E-X	2g
2A	2D	.
.	.	4f#X
=24	=24	=24
2G	2E-X	2g
2rA	4rC	4dd
.	4D	[4dd
=25	=25	=25
1ryy	8D	4dd]
.	4.C	.
.	.	8ccL
.	.	8b-yJ
.	4BB-y	4dd
.	4E-X	[4cc
!!LO:LB:g=original
=26	=26	=26
1ryy	8E-XL	2.cc]
.	8D	.
.	8C	.
.	8BB-yJ	.
.	2C	.
.	.	4a
=27	=27	=27
2rA	2BB-y	2b-y
4d	4GG	2r
[4d	4D	.
=28	=28	=28
2d]	8GL	1r
.	8F	.
.	8D	.
.	8EJ	.
4d	4F	.
[4c	4E-X	.
=29	=29	=29
4c]	8E-XL	1r
.	8D	.
2B-y	8C	.
.	8BB-yJ	.
.	2C	.
4A	.	.
=30	=30	=30
2B-y	4BB-y	4b-y
.	2.GG	4.dd
2B-y	.	.
.	.	8dd
.	.	8ccL
.	.	8b-yJ
!!LO:PB:g=original
=31	=31	=31
2c	2F	8aL
.	.	8g
.	.	8f
.	.	8eJ
4d	4BB-y	4d
8cL	[4AA	4a
8B-yJ	.	.
=32	=32	=32
2.A	2AA]	8aL
.	.	8gJ
.	.	8fL
.	.	16eL
.	.	16dJJ
.	2AA	2e
4c#X	.	.
=33	=33	=33
1d	4D	4f
.	4G	4b-y
.	8GL	8b-yL
.	8F	8a
.	8E	8g
.	8DJ	8fJ
=34	=34	=34
2c	4C	4e
.	4F	4a
2A	8FL	8aL
.	8E	8g
.	8D	8f
.	8CJ	8eJ
=35	=35	=35
2B-y	4BB-y	4d
.	4GG	2.g
2G	8GGL	.
.	8AA	.
.	8BB-y	.
.	8GGJ	.
!!LO:LB:g=original
=36	=36	=36
2A	4D	4f
.	4E-X	2g
2A	2D	.
.	.	4f#X
=37	=37	=37
2G	2.E-X	4g
.	.	8gL
.	.	8aJ
2G	.	8b-yL
.	.	8ccJ
.	8BB-yL	4b-y
.	8AAJ	.
=38	=38	=38
2G	4BB-y	8b-yL
.	.	8aJ
.	4GG	2.b-y
2G	8GGL	.
.	8AA	.
.	8BB-y	.
.	8GGJ	.
=39	=39	=39
2A	4D	4f
.	8DL	8fL
.	8EJ	8gJ
2A	8FL	8aL
.	8EJ	8b-yJ
.	4F	4a
=40	=40	=40
2A	4D	8aL
.	.	8gJ
.	4F	4a
2A	2F	8aL
.	.	8g
.	.	8f
.	.	8eJ
!!LO:LB:g=original
=41	=41	=41
2B-y	2BB-y	4d
.	.	8dL
.	.	8eJ
2B-y	4D	4f
.	4E-X	4g
=42	=42	=42
2B-y	4D	4f
.	2.E-X	4g
2B-y	.	8gL
.	.	8f
.	.	8e
.	.	8dJ
=43	=43	=43
2c	4C	4e
.	8CL	8eL
.	8DJ	8fJ
2c	4E	4g
.	4F	4a
=44	=44	=44
2c	4E	4g
.	2.F	4a
2c	.	8aL
.	.	8g
.	.	8f
.	.	8eJ
=45	=45	=45
2d	4D	4f
.	8DL	8fL
.	8EJ	8gJ
2d	4F	4a
.	4G	4b-y
!!LO:LB:g=original
=46	=46	=46
2d	4F	4a
.	2.BB-y	4b-y
2d	.	8b-yL
.	.	8a
.	.	8b-y
.	.	8ccJ
=47	=47	=47
2G	4GG	4dd
.	4BB-y	4d
2G	4BB-y	8dL
.	.	8e
.	8DL	8f
.	8CJ	8eJ
=48	=48	=48
2A	4AA	4c
.	4C	4e
2A	8CL	8eL
.	8D	8f
.	8E-X	8g
.	8DJ	8fJ
=49	=49	=49
2B-y	4BB-y	4d
.	4D	4f
2B-y	8DL	8fL
.	8E	8g
.	8F	8a
.	8EJ	8gJ
=50	=50	=50
2c	4C	4e
.	4E	4g
2c	8EL	8gL
.	8F	8a
.	8G	8b-y
.	8FJ	8aJ
!!LO:LB:g=original
=51	=51	=51
2d	4D	4f
.	8DL	8fL
.	8EJ	8gJ
[2d	4F	4a
.	4G	[4b-y
=52	=52	=52
2d]	4G	4b-]
.	8FL	8aL
.	8EJ	8gJ
2A	2D	2f
=53	=53	=53
2B-y	4BB-y	4d
.	2E-X	2g
2c	.	.
.	8DL	8fL
.	8CJ	8eJ
=54	=54	=54
2d	4BB-y	4d
.	2E-X	2g
4G	.	.
4A	8DL	8fL
.	8CJ	8eJ
=55	=55	=55
4B-y	4BB-y	4d
4c	4AA	4e
4d	4BB-y	4d
4G	4GG	[4dd
!!LO:LB:g=original
=56	=56	=56
8G	2G	4dd]
4.A	.	.
.	.	8ccL
.	.	8b-yJ
2d	4F	4a
.	4G	4b-y
=57	=57	=57
4c	4A	4a
2d	2.D	4b-y
.	.	8b-yL
.	.	8aJ
8cL	.	[4g
8B-yJ	.	.
=58	=58	=58
2A	2D	4g]
.	.	4f#X
[2Gl	4rBB	[2gl
.	4E-X	.
=59	=59	=59
1G_	8E-XL	1g_
.	8D	.
.	8C	.
.	8BB-yJ	.
.	8CL	.
.	8BB-y	.
.	8C	.
.	8BB-yJ	.
=60	=60	=60
1G;]	4C	1g;]
.	8BB-yL	.
.	8AAJ	.
.	2GG;	.
*v	*v	*
==	==
*-	*-
!!!system-decoration: [*]
!!!RDF**kern: j = editorial accidental, optional, paren up
!!!RDF**kern: i = editorial accidental
!!!RDF**kern: l = terminal long
!!!PTL: Gaspar van Weerbeke: Collected Works. V. Settings of Liturgical Texts, Songs, and Instrumental Works
!!!PPR: American Institute of Musicology
!!!PC#: Corpus Mensurabilis Musicae 106/V
!!!PDT: 2020
!!!PED: Kolb, Paul
!!!YEC: Copyright 2018, Kolb, Paul
!!!YEM: CC-BY-NC 4.0 (https://creativecommons.org/licenses/by-nc/4.0/legalcode)
!!!EED: Zybina, Karina
!!!EEV: 2021/08/26
!!!RDF**kern: l = terminal long
